packages/web-components/src/components/logos/vscode.svg

<svg viewBox="0 0 256 254" version="1.1" xmlns="http://www.w3.org/2000/svg" xmlns:xlink="http://www.w3.org/1999/xlink">
    <defs>
        <path d="M180.82764,252.605272 C184.843951,254.170159 189.42406,254.069552 193.478224,252.11917 L245.979142,226.856851 C251.495593,224.202221 255.003889,218.618034 255.003889,212.49296 L255.003889,41.1971845 C255.003889,35.0719113 251.495593,29.4886211 245.979142,26.8339907 L193.478224,1.57068551 C188.158006,-0.989256713 181.931329,-0.362230036 177.262566,3.0323459 C176.595173,3.51727166 175.959655,4.05869672 175.363982,4.65536598 L74.8565893,96.3498444 L31.0778002,63.1181557 C27.0024197,60.0246398 21.3020866,60.2780499 17.5170718,63.7211005 L3.47578059,76.4937075 C-1.15402423,80.7052561 -1.15933349,87.9889043 3.46431538,92.2072265 L41.430759,126.844525 L3.46431538,161.482221 C-1.15933349,165.700742 -1.15402423,172.984291 3.47578059,177.19584 L17.5170718,189.967949 C21.3020866,193.411497 27.0024197,193.664509 31.0778002,190.571591 L74.8565893,157.339404 L175.363982,249.034221 C176.953772,250.625007 178.82048,251.823326 180.82764,252.605272 Z M191.291764,68.9559518 L115.029663,126.844525 L191.291764,184.733396 L191.291764,68.9559518 Z" id="path-1"></path>
        <linearGradient x1="50.0000484%" y1="-3.91645412e-07%" x2="50.0000484%" y2="99.999921%" id="linearGradient-3">
            <stop stop-color="#FFFFFF" offset="0%"></stop>
            <stop stop-color="#FFFFFF" stop-opacity="0" offset="100%"></stop>
        </linearGradient>
    </defs>
    <g>
				<mask id="mask-2" fill="white">
						<use xlink:href="#path-1"></use>
				</mask>
				<g></g>
				<path d="M246.134784,26.873337 L193.593025,1.57523773 C187.51178,-1.35300582 180.243173,-0.117807811 175.469819,4.65514684 L3.46641717,161.482221 C-1.16004072,165.700742 -1.1547215,172.984291 3.47789235,177.19584 L17.5276804,189.967949 C21.3150858,193.411497 27.0189053,193.664509 31.0966765,190.571591 L238.228667,33.4363005 C245.177523,28.1646927 255.158535,33.1209324 255.158535,41.8432608 L255.158535,41.2332436 C255.158535,35.11066 251.651235,29.5293619 246.134784,26.873337 Z" fill="#0065A9" fill-rule="nonzero" mask="url(#mask-2)"></path>
				<path d="M246.134784,226.816011 L193.593025,252.11419 C187.51178,255.041754 180.243173,253.806579 175.469819,249.034221 L3.46641717,92.2070273 C-1.16004072,87.9888047 -1.1547215,80.7049573 3.47789235,76.4935082 L17.5276804,63.7209012 C21.3150858,60.2778506 27.0189053,60.0243409 31.0966765,63.1179565 L238.228667,220.252649 C245.177523,225.524058 255.158535,220.568416 255.158535,211.84549 L255.158535,212.456104 C255.158535,218.57819 251.651235,224.159388 246.134784,226.816011 Z" fill="#007ACC" fill-rule="nonzero" mask="url(#mask-2)"></path>
				<path d="M193.428324,252.134497 C187.345086,255.060069 180.076479,253.823898 175.303125,249.050544 C181.184153,254.931571 191.240868,250.765843 191.240868,242.448334 L191.240868,11.2729623 C191.240868,2.95542269 181.184153,-1.21005093 175.303125,4.67135981 C180.076479,-0.102038107 187.345086,-1.3389793 193.428324,1.58667934 L245.961117,26.8500144 C251.481553,29.5046448 254.991841,35.0879351 254.991841,41.2132082 L254.991841,212.509283 C254.991841,218.634357 251.481553,224.217548 245.961117,226.872178 L193.428324,252.134497 Z" fill="#1F9CF0" fill-rule="nonzero" mask="url(#mask-2)"></path>
				<path d="M180.827889,252.605272 C184.8442,254.169163 189.424309,254.069552 193.477476,252.11917 L245.978395,226.855855 C251.495842,224.201225 255.004138,218.618034 255.004138,212.49296 L255.004138,41.1969853 C255.004138,35.0717121 251.495842,29.4884219 245.979391,26.8337915 L193.477476,1.57052613 C188.158255,-0.989423064 181.931578,-0.362396387 177.261819,3.03217656 C176.595422,3.51710232 175.959904,4.05852738 175.363235,4.65519664 L74.8565395,96.3496452 L31.0777504,63.1179565 C27.0024695,60.0244405 21.3020368,60.2779503 17.517022,63.7209012 L3.4757806,76.4935082 C-1.15402423,80.7050569 -1.15933349,87.9888047 3.46431539,92.2071269 L41.4308088,126.844525 L3.46431539,161.482221 C-1.15933349,165.700742 -1.15402423,172.984291 3.4757806,177.19584 L17.517022,189.967949 C21.3020368,193.411497 27.0024695,193.664509 31.0777504,190.571591 L74.8565395,157.339404 L175.363235,249.034221 C176.953025,250.625007 178.820729,251.823326 180.827889,252.605272 Z M191.292013,68.9557526 L115.029912,126.844525 L191.292013,184.733396 L191.292013,68.9557526 Z" fill-opacity="0.25" fill="url(#linearGradient-3)" mask="url(#mask-2)"></path>
		</g>
</svg>

<svg viewBox="0 0 256 254" xmlns="http://www.w3.org/2000/svg" >
  <defs>
    <linearGradient id="c" x1="50%" x2="50%" y1="0%" y2="100%">
      <stop offset="0%" stop-color="#FFF" />
      <stop offset="100%" stop-color="#FFF" stop-opacity="0" />
    </linearGradient>
    <path id="a" d="M180.8 252.6c4 1.6 8.6 1.5 12.7-.5L246 227a16 16 0 0 0 9-14.4V41.2a16 16 0 0 0-9-14.4L193.5 1.6a16 16 0 0 0-18.1 3L74.9 96.4 31 63.1c-4.1-3-9.8-2.8-13.6.6l-14 12.8a10.6 10.6 0 0 0 0 15.7l38 34.6-38 34.7a10.6 10.6 0 0 0 0 15.7l14 12.8c3.8 3.4 9.5 3.7 13.6.6l43.8-33.3L175.4 249q2.4 2.4 5.4 3.6M191.3 69 115 126.8l76.3 58z" />
  </defs>
  <mask id="b" fill="#fff">
    <use href="#a" />
  </mask>
  <path fill="#0065A9" d="M246.1 26.9 193.6 1.6c-6-3-13.4-1.7-18.1 3L3.5 161.6a10.6 10.6 0 0 0 0 15.7l14 12.8c3.8 3.4 9.5 3.7 13.6.6L238.2 33.4c7-5.2 17-.3 17 8.4v-.6a16 16 0 0 0-9-14.3" mask="url(#b)" />
  <path fill="#007ACC" d="m246.1 226.8-52.5 25.3c-6 3-13.4 1.7-18.1-3L3.5 92.1a10.6 10.6 0 0 1 0-15.7l14-12.8c3.8-3.4 9.5-3.7 13.6-.6l207.1 157.2c7 5.2 17 .3 17-8.5v.7a16 16 0 0 1-9 14.3" mask="url(#b)" />
  <path fill="#1F9CF0" d="M193.4 252.1c-6 3-13.3 1.7-18.1-3a9.3 9.3 0 0 0 16-6.7V11.3c0-8.3-10.1-12.5-16-6.6 4.8-4.8 12-6 18.1-3.1L246 26.9a16 16 0 0 1 9 14.3v171.3a16 16 0 0 1-9 14.4z" mask="url(#b)" />
  <path fill="url(#c)" fill-opacity=".3" d="M180.8 252.6c4 1.6 8.6 1.5 12.7-.5L246 227a16 16 0 0 0 9-14.4V41.2a16 16 0 0 0-9-14.4L193.5 1.6a16 16 0 0 0-18.1 3L74.9 96.4 31 63.1c-4.1-3-9.8-2.8-13.6.6l-14 12.8a10.6 10.6 0 0 0 0 15.7l38 34.6-38 34.7a10.6 10.6 0 0 0 0 15.7l14 12.8c3.8 3.4 9.5 3.7 13.6.6l43.8-33.3L175.4 249q2.4 2.4 5.4 3.6M191.3 69 115 126.8l76.3 58z" mask="url(#b)" />
</svg>
